X:1
T:Title
%%score { ( 1 3 ) | ( 2 4 ) }
L:1/8
M:2/2
K:Bb
V:1 treble nm="Grand Piano"
V:3 treble 
V:2 bass 
V:4 bass 
V:1
 z4 z2[Q:1/4=112] [DF]2 | [Fd]2 [Ec]2 [DB]2 [DA]2 | [Dc]2 [DB]4 [DA]2 | [Dc]2 [DB]2 F2 [FG]2 | %4
 [EA]6 F2 | e2 d2 c2 =B2 | d2 c4 A2 | G2 [FA]2 [FB]2 [Fc]2 | [Fd]6 [DF]2 | %9
 [Fd]2 [Ec]2 [DB]2 [DA]2 | [Dc]2 [DB]4 [DA]2 | [Dc]2 [DB]2 F2 [FG]2 | [FA]6 [FA]2 | %13
 [=EB]2 G2 A2 B2 | [Ac]2 [Af]4 [FA]2 | [Ac]2 [GB]2 [FA]2 [=EG]2 |[M:3/4] F6[K:bass] | %17
[M:1/4][K:treble] F2 |[M:4/4] z2 [Fd]6[K:bass] | z2 [Fd]4 z2 | [Fd]2 d2 [Fe]2 [Fd]2 | %21
 [B,EG]6 [=B,FG]2 | [C=Ec]2 F2 G2 B2 | [CAc]2 =E2 _E2 B2 | A2 G2 F2 E2 | D6 [DF]2 | %26
 z2 [Fd]6[K:bass] | z2 [Fd]4 z2 | f2 f2 [Ge]2 [Gd]2 | G2 z2 z4 | [_DGB]2 [DGB]2 [DGA]2 [DGB]2 | %31
 f2 f4 d2 | d2 [=Ec]2 [Fd]2 [_Ec]2 |[M:3/4] [DB]6 |] %34
V:2
 z4 z2 [B,,B,]2 | [B,,B,]2 [B,,B,]2 [B,,F,]2 [B,,F,]2 | [B,,F,]2 [B,,F,]4 [B,,F,]2 | %3
 [B,,F,]2 [B,,F,]2 [D,B,]2 [D,B,]2 | [C,F,]6 [F,A,]2 | [F,CF]2 [F,B,F]2 [F,A,F]2 [F,_A,F]2 | %6
 [F,B,F]2 [F,A,F]4 [F,CF]2 | [E,C]2 [E,C]2 [D,B,]2 [C,A,]2 | [B,,B,]6 [B,,B,]2 | %9
 [B,,B,]2 [B,,B,]2 [B,,F,]2 [B,,F,]2 | [B,,F,]2 [B,,F,]4 [B,,F,]2 | %11
 [B,,F,]2 [B,,F,]2 [D,B,]2 [_D,B,]2 | [C,C]6 [C,C]2 | [C,C]2[K:treble] [B,C=E]2 [A,CF]2 [G,CG]2 | %14
 [F,C]2 [F,C]4 [F,C]2 | [C,C]2 [C,C]2 [C,C]2 [C,B,]2 |[M:3/4] [F,A,]6 |[M:1/4] [F,A,]2 | %18
[M:4/4] [B,,B,]2 B,6 | [B,,B,]2 B,4 [F,B,F]2 | B,2 [B,F]2 [C,A,]2 [D,B,]2 | E,2 F,2 E,2 D,2 | %22
 C,2 D,2 =E,2 C,2 | F,2 G,2 A,2 [G,CE]2 | [F,CE]2 [E,A,C]2 [D,B,]2 [C,F,A,]2 | %25
 [B,,F,B,]6 [B,,B,]2 | [B,,B,]2 B,6 | [B,,B,]2 B,4 [F,B,F]2 | [B,,DF]2 [=B,,D_A]2 [C,C]2 [C,=B,]2 | %29
 E,2 E,2 E,2 E,2 | =E,2 E,2 E,2 E,2 | [F,DF]2 [F,DF]4 [F,B,F]2 | %32
 [G,B,=E]2 [C,B,]2 [F,A,]2 [F,A,]2 |[M:3/4] [B,,B,]6 |] %34
V:3
 x8 | x8 | x8 | x8 | x8 | x8 | x8 | x8 | x8 | x8 | x8 | x8 | x8 | x8 | x8 | x8 | %16
[M:3/4] z2[K:bass] E,2 D,2 |[M:1/4][K:treble] x2 |[M:4/4] [Fd]2 z2[K:bass] D,2 F,2 | %19
 [Fd]2 z2 D,2 d2 | x8 | x8 | z2 [Cc]6 | z2 [Cc]4 z2 | x8 | x8 | [Fd]2 z2[K:bass] D,2 F,2 | %27
 [Fd]2 z2 D,2 d2 | x8 | [Cc]2- [C-Gc-]2 [CGc]2 [CG]2 | x8 | x8 | x8 |[M:3/4] x6 |] %34
V:4
 x8 | x8 | x8 | x8 | x8 | x8 | x8 | x8 | x8 | x8 | x8 | x8 | x8 | x2[K:treble] x6 | x8 | x8 | %16
[M:3/4] x6 |[M:1/4] x2 |[M:4/4] z2 B,,2 z4 | z2 B,,2 z4 | B,,4 z4 | x8 | x8 | x8 | x8 | x8 | %26
 z2 B,,2 z4 | z2 B,,2 z4 | x8 | x8 | x8 | x8 | x8 |[M:3/4] x6 |] %34

